X:1
T:Of All the Torments
T:Of All the Torments
T:Copyright © CPDL
T:Copyright © CPDL
T:Copyright © CPDL
T:Copyright © CPDL
T:Copyright © CPDL
Z:Copyright © CPDL
%%score 1 { ( 2 3 ) ( 4 5 ) }
L:1/8
Q:1/4=100
M:3/4
K:G
V:1 treble nm="P1"
V:2 treble nm="P2"
V:3 treble 
V:4 bass nm="P3"
V:5 bass 
V:1
"^Editor: John Henry Fowler""^(  Revision:   5 - 19 - 2008  )""^Allegretto." z z2 | %1
w: |
"^From \"English Lyrics\" -  Set 3 -  Number 6""^Lyrics by William Walsh  -  ( 1663 – 1708 )" z6 | %2
w: |
"^Charles Hubert Hastings Parry""^( 1848 - 1918 )" z6 | z6 | z2 z!f! G B>G | d2 D2 G>E | B4 E2 | %7
w: ||Of all the|tor- ments, all the|cares, With|
 GB D3 D | !>!D2 z G!<(! B>!<)!G | !>!d3 B ^A^c | F4 G2 | A3 F G>E | F4 A2 | c3 c BF | GA B3 B | %15
w: which our lives are|curst; of all the|plagues a lov- er|bears, Sure|ri- vals are the|worst~! By|part- ners of each|o- ther kind af-|
 BG A3 c | D4 D2 |"^rit." !>!d>B G3 B | !>!B>G E3 c | Bd A2 B2 | G4 z2 | z6 | z6 | z6 | z6 | %25
w: \-~flic- tions eas- ier|grow; In|love a- lone we|hate to find Com-|pan- ions of our|woe.|||||
!p! B2 EE GE | A>B A3 F | GA B2 E2 | F4 B2 | B2 ^G2!<(! A!<)!B | d>B"^poco allargando" c4- | %31
w: Sil- via, for all the|pangs you see, Are|lab- ouring in my|breast; I|beg not you would|fa- vour me|
 c!p!!tenuto!B !tenuto!A!tenuto!A d>B |"^a tempo" c4 G2 | c3 A G=F | E=F G3 G | c3"^rit." B AG | %36
w: _ Would you but slight the|rest. How|great so e'er your|ri- gours are With|them a- lone I'll|
!<(! A4!<)! z!ff!"^slower" D | !>!d>B G3 B | !>!B>G !fermata!E2 z"^a tempo" c | Bd A2 B2 | G6 | %41
w: cope: I|can en- dure my|own des- pair, But|not an- o- ther's|hope~!|
 z6 | z6 | z6 | z6 |] %45
w: ||||
V:2
 d (!>![GBg]>e) | c3 c !>![Fcf]>d | B3 B !>![EGe]>c | [FA]([DAd][DGB])[DEG] [CFA]>[DB] | %4
 (!>![CFA]2 [B,G]2) z [B,DB] | [DA]/(A,/D/E/ F/D/[A,DA]) z [G,B,G] | %6
 [B,F]/(F,/B,/^C/ D/B,/[F,B,F]) z[K:bass] [E,G,E] | z [D,G,D] z [E,G,C] z [F,A,] | %8
 ([A,C]2 [G,B,]2)[K:treble] [B,DB]2 | z/ (B,/D/F/ G/E/[B,EB]) z [^A,^CF] | %10
 z/ (F,/B,/^C/) D/(F,/D/F/) z/ (G,/D/G/) | z/ (A,/D/A/) z D (D^C) | .[F,A,D].[A,DF] z F [FA]>D | %13
 [EAc]2 z [Ec] [^DB]F | z/ (B,/G/B/) z/ (B,/G/B/) z/ (B,/F/B/) | %15
 z/ (B,/G/B/) z/ (A,/E/A/) z/ (C/G/c/) | z ([F,A,D] [G,B,E])(([B,G] [CF]))[Fc] | %17
 [GB]2 z (D [D=F])[B,G] | [CE]4 [C^Fc]2 | [DGB]2 [EGA]2 [DFB]2 | [B,G]2 z (d !>![GBg]>)e | %21
 c3 c !>![Fcf]>d | B3 B (!>![EGe]>c | [DFA])([DFd] [B,GB])[EG] A>B | (!>![CFA]2 [B,G]2) z2 | %25
 [EB]2 x2 G/E/[B,EB] | x2 A,/C/E/F/ ^D/B,/[B,DA] | ([B,EG]2 [B,E]2) [^A,E-]2 | (E2 ^D2) B,2 | %29
 x2 ^G,/B,/E/F/ ^G/E/G/B/ | ([Bd]2 [Ac]2) x2 | [ce]2 [=FG]4 |"^a tempo" x2 x/ x/ C/D/ E/C/E/G/ | %33
 [C=Fc]3 [A,FA] [G,EG][=F,DF] | [E,CE][=F,D=F] [G,EG]3 [EG] | [Cc]3 B AG | %36
 ([FA]D)!<(! z F-!<)! [FA]>D | ([DGd]2 G2) [DGB]2 | [EGB]2 !fermata!z2 [CFc]2 | %39
 [DGB]2 [EGA]2 [DFB]2 | [B,G]2 z (d !>![GBg]>)e | c3 c [Fcf]>d | B3 B ([EBe]>c | %43
 [FA])!>![D-Ad] [DGB].[DEG] ([CFA]>[DB]) | (!>![CFA]2 [B,G]2) z2 |] %45
V:3
 x3 | G2 C/E/G x2 | F2 B,/D/F x2 | x6 | x6 | x6 | x5[K:bass] x | x6 | D,4[K:treble] x2 | x6 | x6 | %11
 x4 [E,G,]2 | x6 | x6 | x6 | x6 | x6 | x6 | x6 | x6 | x6 | G2 C/E/G x2 | F2 B,/D/F x2 | z4 [CE]F | %24
 x6 | B,2 G,/B,/E/F/ x2 | [CEA]3 x x2 | x6 | B,4 x2 | [D^GB]3 x x2 | E2- E/(E/A/B/ c/A/[^Fce]) | %31
 G2 (C2 B,2) | [CEG]2 x2 x2 | x6 | x6 | E^F [DG]2 ^C2 | x6 | x6 | x6 | x6 | x6 | G2- G/E/G x2 | %42
 F2- F/D/F x2 | x6 | x6 |] %45
V:4
!f! z [E,,E,]2 | (A,/E,/A,/B,/ x2 [D,,D,]2) | (G,/D,/G,/A,/ x2 [C,,C,])[G,,G,] | %3
 [C,C]([F,,F,][G,,G,])[B,,B,] [D,,D,]2 | [G,,,G,,]4 [G,,G,]2 | [F,,F,]2 [D,A,]2 [E,,E,]2 | %6
 [D,,D,]2 [B,,F,]2 [=C,,=C,]2 | ([B,,,B,,]2 [A,,,A,,]2) [D,,D,]2 | [G,,,G,,]4 [G,,G,]2 | %9
 ([F,,F,]2 [E,,E,]2) [F,,F,]2 | [B,,,B,,]3 [B,,,B,,] .[A,,,A,,].[G,,,G,,] | %11
 .[F,,,F,,].[D,,,D,,] [A,,,A,,]4 | [D,,D,]2!<(! [D,D]2!<)! z2 | [A,,A,]2 [F,,F,]2 [A,,B,]2 | %14
 [E,,E,]2 [E,,E,]2 [D,,D,]2 | C,2 E,2 [A,,,A,,]2 | [C,,C,]2!<(! [B,,,B,,]2!<)! [A,,,A,,]2 | %17
 [G,,,G,,]2 [G,,G,]3 G,, | [C,,C,]4 [A,,,A,,]2 | [B,,,B,,]2 [C,,C,]2 [D,,D,]2 | %20
 [G,,,G,,]2!f! [G,,G,]2 [E,,E,]2 | (A,/E,/A,/B,/ x2 [D,,D,]2) | (G,/D,/G,/A,/ x2) !>![C,,C,]2- | %23
 ([C,,C,][B,,,B,,]) [E,,E,]2 ([A,,,A,,][D,,D,]) | [G,,,G,,]4 z2 | %25
!p! (G,,/B,,/E,/F,/ x2 [G,,,G,,]2) | F,,/C,/E,/F,/ x2 B,,2 | [E,,E,][F,,F,] [G,,G,]2 [C,,C,]2 | %28
 [B,,,B,,]4 B,,2 | (E,,/B,,/E,/F,/ x2 E,2) | A,,/E,/A,/B,/"^poco allargando" C2 [A,,A,]2 | %31
!p! [G,,G,]2 z2 G,2 | ([C,,C,]/G,,/C,/D,/ E,/G,/!<(! z z2)!<)! | %33
!f! [A,,,A,,]2 [=F,,,=F,,]2 [A,,,A,,][B,,,B,,] | [C,,C,]3 G, [C,C]2 | %35
 ([A,,A,]2"^rit." [G,,G,]2) [E,,E,]2 | [D,,D,]2"^cresc."!<(! [D,D]2!<)! [C,C]2 | %37
 [B,,B,]2 z2 [G,,G,]2 | [C,C]2 z2"^a tempo" [A,,,A,,]2 | [B,,,B,,]2 [C,,C,]2 [D,,D,]2 | %40
 [G,,,G,,]2!f! [G,,G,]2 [E,,E,]2 | ([A,,A,]/E,/A,/B,/ C2) [D,,D,]2 | %42
 ([G,,G,]/D,/G,/A,/ B,2) [C,,C,][G,,G,] | [C,C][F,,F,] [G,,G,][B,,B,] [D,,D,]2 | [G,,,G,,]4 z2 |] %45
V:5
 x3 | A,,2 x2 x2 | G,,2 x2 x2 | x6 | x6 | x6 | x6 | x6 | x6 | x6 | x6 | x6 | x6 | x6 | x6 | %15
 C,,4 x2 | x6 | x6 | x6 | x6 | x6 | A,,2 x2 x2 | G,,2 x2 x2 | x6 | x6 | G,,,2 z2 x2 | (F,,4 x2) | %27
 x6 | x6 | E,,2 x2 x2 | A,,2 x2 x2 | x6 | C,,2 x2 x2 | x6 | x6 | x6 | x6 | x6 | x6 | x6 | x6 | x6 | %42
 x6 | x6 | x6 |] %45

